src/Icon/svgs/copy.svg

<svg width="24" height="24" viewBox="0 0 24 24" fill="none" xmlns="http://www.w3.org/2000/svg">
<path fill-rule="evenodd" clip-rule="evenodd" d="M10 4V14H20V4H10ZM9 2C8.44772 2 8 2.44772 8 3V15C8 15.5523 8.44772 16 9 16H21C21.5523 16 22 15.5523 22 15V3C22 2.44772 21.5523 2 21 2H9Z" fill="#1B1C1D"/>
<path fill-rule="evenodd" clip-rule="evenodd" d="M6 8H3C2.44772 8 2 8.44772 2 9V21C2 21.5523 2.44772 22 3 22H15C15.5523 22 16 21.5523 16 21V18H14V20H4V10H6V8Z" fill="#1B1C1D"/>
</svg>

<svg xmlns="http://www.w3.org/2000/svg" width="24" height="24" fill="#1B1C1D"  fill-rule="evenodd"><path d="M10 4v10h10V4H10zM9 2a1 1 0 0 0-1 1v12a1 1 0 0 0 1 1h12a1 1 0 0 0 1-1V3a1 1 0 0 0-1-1H9zM6 8H3a1 1 0 0 0-1 1v12a1 1 0 0 0 1 1h12a1 1 0 0 0 1-1v-3h-2v2H4V10h2V8z"/></svg>
